images/site-logo.svg

<svg width="112" height="18" viewBox="0 0 112 18" fill="none" xmlns="http://www.w3.org/2000/svg">
<path fill-rule="evenodd" clip-rule="evenodd" d="M33.8299 13.5084C33.1757 13.2206 32.5308 12.8972 31.8953 12.5383L30 15.4206C30.6654 15.8019 31.3888 16.1514 32.1701 16.4692C32.9514 16.7869 33.7738 17.0598 34.6374 17.2879C35.5009 17.5159 36.4037 17.6916 37.3458 17.815C38.2879 17.9383 39.2523 18 40.2393 18C41.7346 18 43.0916 17.8598 44.3103 17.5794C45.529 17.2991 46.5701 16.8879 47.4336 16.3458C48.2972 15.8037 48.9626 15.1383 49.4299 14.3495C49.8972 13.5607 50.1308 12.6617 50.1308 11.6523C50.1308 10.8972 49.9925 10.215 49.7159 9.60561C49.4393 8.99626 49.0318 8.47664 48.4935 8.04673C47.9551 7.61682 47.2879 7.28598 46.4916 7.05421C45.6953 6.82243 44.7813 6.70654 43.7495 6.70654C43.2037 6.70654 42.6411 6.73458 42.0617 6.79065C41.4822 6.84673 40.914 6.90841 40.357 6.9757L39.5411 7.07243L38.7645 7.16075C38.2598 7.21682 37.8131 7.24486 37.4243 7.24486C36.4598 7.24486 35.7421 7.07851 35.271 6.74579C34.8 6.41308 34.5645 5.98505 34.5645 5.46168C34.5645 5.19252 34.6374 4.9215 34.7832 4.6486C34.929 4.3757 35.1888 4.12897 35.5626 3.90841C35.9365 3.68785 36.4393 3.50654 37.071 3.36449C37.7028 3.22243 38.5084 3.1514 39.4879 3.1514C40.1757 3.1514 40.8505 3.19065 41.5121 3.26916C42.1738 3.34766 42.8149 3.4542 43.4355 3.58878C44.0561 3.72337 44.6505 3.88224 45.2187 4.06542C45.7869 4.2486 46.3178 4.4486 46.8112 4.66542L48.3701 1.79439C47.772 1.52523 47.1252 1.28038 46.4299 1.05981C45.7346 0.839251 45.0112 0.650468 44.2598 0.493458C43.5084 0.336448 42.7365 0.214954 41.9439 0.128972C41.1514 0.0429902 40.3626 0 39.5776 0C38.4935 0 37.5271 0.0766347 36.6785 0.229907C35.8299 0.383178 35.0822 0.594391 34.4355 0.863551C33.7888 1.13271 33.2374 1.45233 32.7813 1.82243C32.3252 2.19253 31.9533 2.59252 31.6654 3.02243C31.3776 3.45234 31.1682 3.9028 31.0374 4.37383C30.9065 4.84486 30.8411 5.31962 30.8411 5.79813C30.8411 6.60561 31.0056 7.31215 31.3346 7.91776C31.6636 8.52337 32.1065 9.02804 32.6636 9.43178C33.2206 9.83552 33.8598 10.1383 34.5813 10.3402C35.3028 10.5421 36.0561 10.643 36.8411 10.643C37.3122 10.643 37.8149 10.6112 38.3495 10.5477C38.8841 10.4841 39.4262 10.415 39.9757 10.3402L40.7958 10.2322L41.6075 10.1327C42.1458 10.0692 42.6579 10.0374 43.1439 10.0374C44.2505 10.0374 45.0692 10.2224 45.6 10.5925C46.1308 10.9626 46.3963 11.4654 46.3963 12.1009C46.3963 12.4972 46.2897 12.8635 46.0766 13.2C45.8635 13.5365 45.5234 13.8262 45.0561 14.0692C44.5888 14.3122 43.9851 14.5028 43.2449 14.6411C42.5047 14.7794 41.6075 14.8486 40.5533 14.8486C39.6785 14.8486 38.8542 14.7963 38.0804 14.6916C37.3065 14.5869 36.5682 14.4355 35.8654 14.2374C35.1626 14.0393 34.4841 13.7963 33.8299 13.5084ZM0 0.224299H3.57757V17.7533H0V0.224299ZM8.08598 0.224299H11.6411L22.5645 5.94392V0.224299H26.1196V17.7533H22.5645V9.71215L11.6411 4.02617V17.7533H8.08598V0.224299ZM53.3832 0.224299H56.9383V9.88037C56.9383 10.6729 57.0467 11.3776 57.2636 11.9944C57.4804 12.6112 57.8037 13.1327 58.2336 13.5589C58.6636 13.985 59.1963 14.3084 59.8318 14.529C60.4673 14.7495 61.2075 14.8598 62.0523 14.8598C62.8897 14.8598 63.628 14.7495 64.2673 14.529C64.9065 14.3084 65.4411 13.985 65.871 13.5589C66.3009 13.1327 66.6243 12.6112 66.8411 11.9944C67.0579 11.3776 67.1664 10.6729 67.1664 9.88037V0.224299H70.7215V10.3065C70.7215 11.4579 70.5271 12.5047 70.1383 13.4467C69.7495 14.3888 69.1851 15.1963 68.4449 15.8692C67.7047 16.5421 66.7981 17.0617 65.7252 17.428C64.6523 17.7944 63.428 17.9776 62.0523 17.9776C60.6766 17.9776 59.4523 17.7944 58.3794 17.428C57.3065 17.0617 56.4 16.5421 55.6598 15.8692C54.9196 15.1963 54.3551 14.3888 53.9664 13.4467C53.5776 12.5047 53.3832 11.4579 53.3832 10.3065V0.224299ZM83.9664 0.224299H75.0505V17.7533H78.6056V12.7626L84.0897 12.7738L87.3869 17.7533H91.7383L87.9252 12.1458C88.5907 11.8916 89.1701 11.572 89.6636 11.1869C90.157 10.8019 90.5664 10.3626 90.8916 9.86916C91.2168 9.3757 91.4579 8.83552 91.615 8.2486C91.772 7.66168 91.8505 7.04299 91.8505 6.39252C91.8505 5.42803 91.6916 4.56449 91.3738 3.80187C91.0561 3.03925 90.572 2.39253 89.9215 1.86168C89.271 1.33084 88.4523 0.925235 87.4654 0.64486C86.4785 0.364485 85.3122 0.224299 83.9664 0.224299ZM84.0561 9.68972C84.729 9.68972 85.3178 9.61122 85.8224 9.45421C86.3271 9.2972 86.7495 9.07664 87.0897 8.79252C87.4299 8.50841 87.6841 8.16262 87.8523 7.75514C88.0206 7.34766 88.1047 6.89346 88.1047 6.39252C88.1047 5.41308 87.7682 4.65608 87.0953 4.1215C86.4224 3.58691 85.4093 3.31963 84.0561 3.31963H78.6056V9.68972H84.0561ZM110.983 0.224299H96.0561V17.7533H111.219V14.6467H99.6112V9.76822H109.682V6.84112H99.6112V3.34206H110.983V0.224299Z" fill="#2C2830"/>
</svg>

<svg width="112" height="18" fill="none" xmlns="http://www.w3.org/2000/svg"><path fill-rule="evenodd" clip-rule="evenodd" d="M33.83 13.508c-.654-.287-1.3-.61-1.935-.97L30 15.421c.665.38 1.389.73 2.17 1.048.781.318 1.604.59 2.467.819a21.58 21.58 0 0 0 2.709.527c.942.123 1.906.185 2.893.185 1.496 0 2.853-.14 4.071-.42 1.219-.28 2.26-.692 3.124-1.234.863-.542 1.529-1.208 1.996-1.996.467-.79.7-1.688.7-2.698 0-.755-.138-1.437-.414-2.046a4.19 4.19 0 0 0-1.223-1.56c-.538-.43-1.205-.76-2.001-.992-.797-.232-1.71-.347-2.742-.347-.546 0-1.109.028-1.688.084-.58.056-1.148.117-1.705.185l-.816.096-.776.089c-.505.056-.952.084-1.34.084-.965 0-1.683-.166-2.154-.5-.471-.332-.706-.76-.706-1.283 0-.27.072-.54.218-.813.146-.273.406-.52.78-.74.373-.221.876-.402 1.508-.545.632-.142 1.437-.213 2.417-.213.688 0 1.362.04 2.024.118.662.079 1.303.185 1.923.32.621.134 1.215.293 1.784.476.568.184 1.099.384 1.592.6l1.56-2.87a17.967 17.967 0 0 0-1.941-.735C45.735.84 45.01.65 44.26.493A23.94 23.94 0 0 0 41.944.13 21.924 21.924 0 0 0 39.578 0c-1.085 0-2.05.077-2.9.23-.848.153-1.596.364-2.242.634a6.683 6.683 0 0 0-1.655.958c-.456.37-.828.77-1.116 1.2-.287.43-.497.88-.628 1.352-.13.47-.196.946-.196 1.424 0 .808.165 1.514.494 2.12.329.605.771 1.11 1.329 1.514a5.981 5.981 0 0 0 1.917.908 8.347 8.347 0 0 0 2.26.303c.471 0 .974-.032 1.508-.095a97.12 97.12 0 0 0 1.627-.208l.82-.108.812-.1c.538-.063 1.05-.095 1.536-.095 1.107 0 1.925.185 2.456.555.53.37.796.873.796 1.509 0 .396-.106.762-.32 1.099-.212.337-.553.626-1.02.87-.467.242-1.07.433-1.811.571-.74.138-1.637.208-2.692.208-.874 0-1.699-.053-2.473-.157a16.126 16.126 0 0 1-2.215-.455 15.458 15.458 0 0 1-2.035-.729ZM0 .224h3.578v17.53H0V.223Zm8.086 0h3.555l10.923 5.72V.224h3.556v17.53h-3.556V9.711L11.641 4.026v13.727H8.086V.224Zm45.297 0h3.555V9.88c0 .793.109 1.498.326 2.114.216.617.54 1.139.97 1.565.43.426.962.75 1.598.97.635.22 1.376.33 2.22.33.838 0 1.576-.11 2.215-.33.64-.22 1.174-.544 1.604-.97.43-.426.753-.948.97-1.565.217-.616.325-1.321.325-2.114V.224h3.556v10.082c0 1.152-.195 2.199-.584 3.14a6.667 6.667 0 0 1-1.693 2.423c-.74.673-1.647 1.193-2.72 1.559-1.073.366-2.297.55-3.673.55-1.375 0-2.6-.184-3.673-.55-1.072-.366-1.979-.886-2.72-1.559a6.666 6.666 0 0 1-1.693-2.422c-.388-.942-.583-1.99-.583-3.14V.223Zm30.583 0h-8.915v17.53h3.555v-4.991l5.484.01 3.297 4.98h4.351l-3.813-5.607a6.676 6.676 0 0 0 1.739-.96 5.526 5.526 0 0 0 1.228-1.317 5.515 5.515 0 0 0 .723-1.62 7.154 7.154 0 0 0 .236-1.856c0-.965-.16-1.829-.477-2.591a4.906 4.906 0 0 0-1.453-1.94c-.65-.531-1.469-.937-2.456-1.217-.987-.28-2.153-.42-3.499-.42Zm.09 9.466c.673 0 1.262-.079 1.766-.236.505-.157.927-.377 1.268-.661.34-.285.594-.63.762-1.038.169-.407.253-.862.253-1.362 0-.98-.337-1.737-1.01-2.271-.673-.535-1.686-.802-3.039-.802h-5.45v6.37h5.45ZM110.983.224H96.056v17.53h15.163v-3.107H99.611V9.768h10.071V6.841h-10.07V3.342h11.371V.224Z" fill="#2C2830"/></svg>
